X: 5
T: I'll Tell My Ma   [D]
O: Trad Ireland
Z: 2006 John Chambers <jc@trillian.mit.edu>
M: C
L: 1/4
K: D
[d/A/] \
|: "D"Ad f>f   | "(G)"gf "D"f>f | "A7"fe e>f | "D"ed dz/ :|
[| "D"aa af | "Em"gg ge | "D"f>f       fd | "A7"ec BA   |
|  "D"aa af |  "G"gg g2 | "D"fd/d/ "A7"ef |  "D"ed dz/ |]

%%sep 1 1 500
%%sep 1 1 500

